table-search.svg

<svg fill="currentColor" viewBox="0 0 24 24"><path d="M19.3 17.89c1.32-2.1.7-4.89-1.41-6.21a4.52 4.52 0 0 0-6.21 1.41C10.36 15.2 11 18 13.09 19.3c1.47.92 3.33.92 4.8 0L21 22.39 22.39 21zm-2-.62c-.98.98-2.56.97-3.54 0-.97-.98-.97-2.56.01-3.54.97-.97 2.55-.97 3.53 0 .96.99.95 2.57-.03 3.54zM19 4H5a2 2 0 0 0-2 2v12a2 2 0 0 0 2 2h5.81a6.3 6.3 0 0 1-1.31-2H5v-4h4.18c.16-.71.43-1.39.82-2H5V8h6v2.81a6.3 6.3 0 0 1 2-1.31V8h6v2a6.499 6.499 0 0 1 2 2V6a2 2 0 0 0-2-2"/></svg>

<svg  viewBox="0 0 24 24" fill="currentColor"><path  d="M19.3,17.89C20.62,15.79 20,13 17.89,11.68C15.79,10.36 13,11 11.68,13.09C10.36,15.2 11,18 13.09,19.3C14.56,20.22 16.42,20.22 17.89,19.3L21,22.39L22.39,21L19.3,17.89M17.3,17.27C16.32,18.25 14.74,18.24 13.76,17.27C12.79,16.29 12.79,14.71 13.77,13.73C14.74,12.76 16.32,12.76 17.3,13.73C18.26,14.72 18.25,16.3 17.27,17.27H17.3M19,4H5A2,2 0 0,0 3,6V18A2,2 0 0,0 5,20H10.81C10.25,19.42 9.8,18.74 9.5,18H5V14H9.18C9.34,13.29 9.61,12.61 10,12H5V8H11V10.81C11.58,10.25 12.26,9.8 13,9.5V8H19V10C19.4,10.25 19.77,10.55 20.1,10.88C20.44,11.22 20.74,11.59 21,12V6A2,2 0 0,0 19,4Z"/></svg>
